src/renderer/assets/icon/homePage-hover-icon.svg

<?xml version="1.0" encoding="UTF-8"?>
<svg width="30px" height="30px" viewBox="0 0 30 30" version="1.1" xmlns="http://www.w3.org/2000/svg" xmlns:xlink="http://www.w3.org/1999/xlink">
    <!-- Generator: Sketch 57.1 (83088) - https://sketch.com -->
    <desc>Created with Sketch.</desc>
    <g id="sidebar/__button/--home" stroke="none" stroke-width="1" fill="none" fill-rule="evenodd">
        <path d="M21.161884,14.2422267 L21.161884,20.6824896 C21.161884,21.2568657 20.6962602,21.7224896 20.121884,21.7224896 L9.87811597,21.7224896 C9.30373983,21.7224896 8.83811597,21.2568657 8.83811597,20.6824896 L8.83811597,14.2422267 L21.161884,14.2422267 Z M16.4874195,15.9822169 L13.5125805,15.9822169 L13.5125805,20.8178084 L16.4874195,20.8178084 L16.4874195,15.9822169 Z" id="形状结合" fill="#B4B5C4" fill-rule="nonzero"></path>
        <path d="M15.9138142,8.60473735 L22.4079329,14.1999004 C22.7560487,14.4998279 22.7951131,15.0251707 22.4951856,15.3732865 C22.3371343,15.5567313 22.1070071,15.6622198 21.8648662,15.6622198 L8.13513379,15.6622198 C7.67563288,15.6622198 7.30313379,15.2897207 7.30313379,14.8302198 C7.30313379,14.5880789 7.40862226,14.3579517 7.59206707,14.1999004 L14.0861858,8.60473735 C14.6113741,8.1522488 15.3886259,8.1522488 15.9138142,8.60473735 Z" id="矩形" fill="#B4B5C4" fill-rule="nonzero"></path>
    </g>
</svg>

<svg width="30" height="30" xmlns="http://www.w3.org/2000/svg">
    <g fill="#B4B5C4">
        <path d="M21.162 14.242v6.44a1.04 1.04 0 01-1.04 1.04H9.878a1.04 1.04 0 01-1.04-1.04v-6.44h12.324zm-4.675 1.74h-2.974v4.836h2.974v-4.836z"/>
        <path d="M15.914 8.605l6.494 5.595a.832.832 0 01-.543 1.462H8.135a.832.832 0 01-.543-1.462l6.494-5.595a1.4 1.4 0 011.828 0z"/>
    </g>
</svg>
